svgs/sharp-solid/space-station-moon-construction.svg

<svg xmlns="http://www.w3.org/2000/svg" viewBox="0 0 512 512"><!--! Font Awesome Pro 6.6.0 by @fontawesome - https://fontawesome.com License - https://fontawesome.com/license (Commercial License) Copyright 2024 Fonticons, Inc. --><path d="M511 279.1c.7-7.6 1-15.3 1-23.1c0-10.8-.7-21.5-2-32l-62 0 0-64-32 0-64 0 0-64 64 0 0-39.9C372.2 21 316.5 0 256 0C114.6 0 0 114.6 0 256c0 7.8 .3 15.5 1 23.1C73.2 304.7 160.8 320 256 320s182.8-15.3 255-40.9zM6.8 314.8C33.4 427.9 134.9 512 256 512c76.5 0 145.1-33.5 192-86.7l0-41.3-64 0 0-41.2c-40.7 6-83.7 9.2-128 9.2c-91.3 0-176.6-13.6-249.2-37.2zM192 192a32 32 0 1 0 0-64 32 32 0 1 0 0 64zm0-112a80 80 0 1 1 0 160 80 80 0 1 1 0-160z"/></svg>

<svg xmlns="http://www.w3.org/2000/svg" viewBox="0 0 512 512"><!--! Font Awesome Pro 6.4.0 by @fontawesome - https://fontawesome.com License - https://fontawesome.com/license (Commercial License) Copyright 2023 Fonticons, Inc. --><path d="M511 279.1c.7-7.6 1-15.3 1-23.1c0-10.8-.7-21.5-2-32H448V160H416 352V96h64V56.1C372.2 21 316.5 0 256 0C114.6 0 0 114.6 0 256c0 7.8 .3 15.5 1 23.1C73.2 304.7 160.8 320 256 320s182.8-15.3 255-40.9zM6.8 314.8C33.4 427.9 134.9 512 256 512c76.5 0 145.1-33.5 192-86.7V384H384V342.8c-40.7 6-83.7 9.2-128 9.2c-91.3 0-176.6-13.6-249.2-37.2zM192 192a32 32 0 1 0 0-64 32 32 0 1 0 0 64zm0-112a80 80 0 1 1 0 160 80 80 0 1 1 0-160z"/></svg>
